build/svg/cmd/lc_insertscript.svg

<?xml version="1.0" encoding="UTF-8" standalone="no"?>
<svg
   xmlns:dc="http://purl.org/dc/elements/1.1/"
   xmlns:cc="http://creativecommons.org/ns#"
   xmlns:rdf="http://www.w3.org/1999/02/22-rdf-syntax-ns#"
   xmlns:svg="http://www.w3.org/2000/svg"
   xmlns="http://www.w3.org/2000/svg"
   xmlns:sodipodi="http://sodipodi.sourceforge.net/DTD/sodipodi-0.dtd"
   xmlns:inkscape="http://www.inkscape.org/namespaces/inkscape"
   height="24"
   width="24"
   version="1.1"
   id="svg4"
   sodipodi:docname="lc_insertscript.svg"
   inkscape:export-filename="/home/jupiter007/Libreoffice yaru theme fullcolor/build/cmd/lc_insertscript.png"
   inkscape:export-xdpi="96"
   inkscape:export-ydpi="96"
   inkscape:version="0.92.5 (2060ec1f9f, 2020-04-08)">
  <metadata
     id="metadata10">
    <rdf:RDF>
      <cc:Work
         rdf:about="">
        <dc:format>image/svg+xml</dc:format>
        <dc:type
           rdf:resource="http://purl.org/dc/dcmitype/StillImage" />
      </cc:Work>
    </rdf:RDF>
  </metadata>
  <defs
     id="defs8" />
  <sodipodi:namedview
     pagecolor="#ffffff"
     bordercolor="#666666"
     borderopacity="1"
     objecttolerance="10"
     gridtolerance="10"
     guidetolerance="10"
     inkscape:pageopacity="0"
     inkscape:pageshadow="2"
     inkscape:window-width="1920"
     inkscape:window-height="1011"
     id="namedview6"
     showgrid="true"
     inkscape:zoom="27.812867"
     inkscape:cx="8.5489082"
     inkscape:cy="11.361435"
     inkscape:window-x="1920"
     inkscape:window-y="32"
     inkscape:window-maximized="1"
     inkscape:current-layer="svg4">
    <inkscape:grid
       type="xygrid"
       id="grid831" />
  </sodipodi:namedview>
  <path
     sodipodi:nodetypes="cccscsccccccccscscccccc"
     inkscape:connector-curvature="0"
     id="path4237-1"
     d="m 17.005884,2.9997083 c 1.2582,0.0145 2.178891,-0.0306 2.931641,0.384766 0.37637,0.20766 0.673231,0.559386 0.837891,0.998046 0.16467,0.43867 0.224609,0.959588 0.224609,1.617188 v 1.488281 10.5123027 c 0,0.657609 -0.0599,1.178577 -0.224609,1.617189 -0.16468,0.43861 -0.461531,0.788523 -0.837891,0.996092 -0.75272,0.415131 -1.673541,0.37165 -2.931641,0.386719 h -0.002 -10.005859 -0.0039 c -1.25819,-0.0145 -2.178891,0.0306 -2.931641,-0.384766 C 3.686114,20.407866 3.389263,20.05614 3.224593,19.617481 3.060054,19.17881 2.999975,18.657901 2.999975,18.000292 V 7.4665053 5.9997083 c 0,-0.6576 0.0599,-1.178577 0.224609,-1.617188 0.16468,-0.438599 0.461531,-0.788533 0.837891,-0.996093 0.75277,-0.41513 1.673601,-0.371639 2.931691,-0.386719 h 0.002 10.005859 z"
     style="font-style:normal;font-variant:normal;font-weight:normal;font-stretch:normal;font-size:15px;line-height:125%;font-family:Ubuntu;-inkscape-font-specification:Ubuntu;text-align:center;letter-spacing:0px;word-spacing:0px;writing-mode:lr-tb;text-anchor:middle;display:inline;opacity:0.6;fill:#000000;fill-opacity:1;stroke:none;stroke-width:0.99980211" />
  <path
     inkscape:connector-curvature="0"
     id="path1993"
     d="m 12.016656,4.0268933 c 1.556581,0.0108 5.10999,-0.01175 6.659941,0.03877 0.461229,0.04267 1.016188,0.206419 1.15534,0.709967 0.218994,0.635346 0.108414,1.333787 0.145796,1.981924 0.0078,2.297084 0.02297,9.5964297 -0.02152,11.8857807 -0.0391,0.461929 -0.202551,1.012665 -0.698756,1.163665 -0.632456,0.225083 -1.284144,0.12274 -1.935974,0.154299 -1.424235,0.0068 -4.850563,0.01102 -6.27642,0.01131 -1.704531,3.49e-4 -3.408388,-0.005 -5.10719,-0.01851 C 5.425962,19.942089 4.754174,19.974029 4.353128,19.548907 3.932031,19.009124 4.066055,18.280886 4.030383,17.64512 4.018513,15.200798 4.002693,7.7340243 4.052283,5.2883253 c 0.04928,-0.40204 0.169992,-0.862952 0.575139,-1.044475 0.668169,-0.294097 1.426205,-0.168019 2.125921,-0.205572 1.754407,-0.0118 3.508874,-0.01249 5.263313,-0.01139 z"
     style="opacity:1;vector-effect:none;fill:#ffffff;fill-opacity:1;stroke:none;stroke-width:1;stroke-linecap:round;stroke-linejoin:bevel;stroke-miterlimit:4;stroke-dasharray:none;stroke-dashoffset:0;stroke-opacity:1"
     sodipodi:nodetypes="cccccccsccccccc" />
  <path
     style="fill:#000000;stroke:none;stroke-width:1px;stroke-linecap:butt;stroke-linejoin:miter;stroke-opacity:1"
     d="m 14,8 -3,8 h -1 l 3,-8 z"
     id="path833"
     inkscape:connector-curvature="0"
     sodipodi:nodetypes="ccccc" />
  <path
     style="fill:none;stroke:#000000;stroke-width:1px;stroke-linecap:butt;stroke-linejoin:miter;stroke-opacity:1"
     d="M 9,15 6,12 9,9"
     id="path835"
     inkscape:connector-curvature="0"
     sodipodi:nodetypes="ccc" />
  <path
     sodipodi:nodetypes="ccc"
     inkscape:connector-curvature="0"
     id="path837"
     d="M 15,15 18,12 15,9"
     style="fill:none;stroke:#000000;stroke-width:1px;stroke-linecap:butt;stroke-linejoin:miter;stroke-opacity:1" />
</svg>

<svg xmlns="http://www.w3.org/2000/svg" height="24" width="24"><path d="M17.006 3c1.258.014 2.179-.03 2.932.384.376.208.673.56.837.999.165.438.225.96.225 1.617v12c0 .658-.06 1.179-.225 1.617a1.875 1.875 0 01-.837.997c-.753.415-1.674.371-2.932.386H6.994c-1.258-.014-2.179.03-2.932-.384a1.88 1.88 0 01-.837-.999C3.06 19.18 3 18.657 3 18V6c0-.658.06-1.179.225-1.617.164-.44.461-.789.837-.997.753-.415 1.674-.371 2.932-.386H17.002z" style="line-height:125%;-inkscape-font-specification:Ubuntu;text-align:center" font-weight="400" font-size="15" font-family="Ubuntu" letter-spacing="0" word-spacing="0" text-anchor="middle" opacity=".6"/><path d="M12.017 4.027c1.556.01 5.11-.012 6.66.039.46.042 1.016.206 1.155.71.219.635.108 1.333.146 1.982.008 2.297.023 9.596-.022 11.885-.039.462-.202 1.013-.699 1.164-.632.225-1.284.123-1.936.154-1.424.007-4.85.011-6.276.012-1.704 0-3.408-.005-5.107-.019-.512-.012-1.184.02-1.585-.405-.421-.54-.287-1.268-.323-1.904-.011-2.444-.027-9.911.022-12.357.05-.402.17-.863.575-1.044.669-.294 1.427-.168 2.126-.206a715.83 715.83 0 015.264-.011z" fill="#fff"/><path d="M14 8l-3 8h-1l3-8z"/><path d="M9 15l-3-3 3-3M15 15l3-3-3-3" fill="none" stroke="#000"/></svg>
